src/cmd/sc_autoformat.svg

<?xml version="1.0" encoding="UTF-8" standalone="no"?>
<svg
   xmlns:dc="http://purl.org/dc/elements/1.1/"
   xmlns:cc="http://creativecommons.org/ns#"
   xmlns:rdf="http://www.w3.org/1999/02/22-rdf-syntax-ns#"
   xmlns:svg="http://www.w3.org/2000/svg"
   xmlns="http://www.w3.org/2000/svg"
   xmlns:sodipodi="http://sodipodi.sourceforge.net/DTD/sodipodi-0.dtd"
   xmlns:inkscape="http://www.inkscape.org/namespaces/inkscape"
   viewBox="0 0 16 16"
   version="1.1"
   id="svg4"
   sodipodi:docname="sc_autoformat.svg"
   inkscape:version="0.92.4 (5da689c313, 2019-01-14)"
   inkscape:export-filename="/home/jupiter007/Libreoffice yaru theme fullcolor/build/cmd/sc_autoformat.png"
   inkscape:export-xdpi="95"
   inkscape:export-ydpi="95"><metadata
   id="metadata10">
  <rdf:RDF>
    <cc:Work
       rdf:about="">
      <dc:format>image/svg+xml</dc:format>
      <dc:type
         rdf:resource="http://purl.org/dc/dcmitype/StillImage" />
    </cc:Work>
  </rdf:RDF>
</metadata>
<defs
   id="defs8" />
<sodipodi:namedview
   pagecolor="#ffffff"
   bordercolor="#666666"
   borderopacity="1"
   objecttolerance="10"
   gridtolerance="10"
   guidetolerance="10"
   inkscape:pageopacity="0"
   inkscape:pageshadow="2"
   inkscape:window-width="1920"
   inkscape:window-height="1011"
   id="namedview6"
   showgrid="true"
   inkscape:zoom="41.7193"
   inkscape:cx="2.7746155"
   inkscape:cy="6.6751462"
   inkscape:window-x="0"
   inkscape:window-y="32"
   inkscape:window-maximized="1"
   inkscape:current-layer="svg4">
  <inkscape:grid
     type="xygrid"
     id="grid823" />
</sodipodi:namedview>

/&gt;<path
   d="M 3.5,2 2.96875,2.96875 2,3.5 2.96875,4.03125 3.5,5 4.03125,4.03125 5,3.5 4.03125,2.96875 Z"
   id="path821"
   style="fill:#808080;fill-opacity:1" />
<path
   d="M 11.125,2.0000001 2.0000001,11.125 4.8750002,14 14,4.8750001 Z"
   id="path819"
   inkscape:connector-curvature="0"
   style="fill:#000000;stroke:none;opacity:0.6" />
<path
   d="m 11.125,3.4375001 1.4375,1.4375 -2.7812498,2.7812494 -1.4375,-1.4375 z"
   id="path2"
   style="fill:#ffffff"
   inkscape:connector-curvature="0" />
<rect
   style="opacity:1;fill:#fa9381;fill-opacity:1;stroke:none;stroke-width:2;stroke-linecap:round;stroke-linejoin:round;stroke-miterlimit:4;stroke-dasharray:none;stroke-opacity:1"
   id="rect825"
   width="6"
   height="2"
   x="-5.4523492"
   y="10.280776"
   transform="rotate(-45)" />
</svg>

<svg viewBox="0 0 16 16" xmlns="http://www.w3.org/2000/svg">/&gt;<path d="m3.5 2-.53125.96875-.96875.53125.96875.53125.53125.96875.53125-.96875.96875-.53125-.96875-.53125zm7.625 0-9.125 9.125 2.875 2.875 9.125-9.125zm0 1.4375 1.4375 1.4375-2.78125 2.78125-1.4375-1.4375z" fill="#232629"/></svg>
